icons/wash_hands_fill.svg

<svg width="48" height="48" viewBox="0 0 48 48" fill="none" xmlns="http://www.w3.org/2000/svg">
<path d="M6 30.0007C6 29.4485 6.44772 29.0007 7 29.0007H10C10.5523 29.0007 11 29.4484 11 30.0007V40.9961C11 41.5484 10.5523 41.9961 10 41.9961H7C6.44772 41.9961 6 41.5484 6 40.9961V30.0007Z" fill="black"/>
<path d="M20.9148 29.1888C20.9148 29.1888 18.6371 28.764 17.7052 29.1888C17.0113 29.5051 14.3259 30.4693 13 30.941L13 39.8015C13.7674 39.7566 15.2933 39.6759 15.9451 39.7022C19.701 39.8535 21.6183 41.4359 25.3668 41.7199C27.4636 41.8788 29.3011 42.2509 30.7506 41.7199C32.2001 41.1889 40.4829 37.1535 41.5182 36.0915C42.5536 35.0296 42.0359 32.1623 38.8263 32.6933C35.6168 33.2242 31.3718 35.773 29.6117 35.6668C27.8517 35.5606 23.1926 34.711 23.1926 34.711L28.542 34.7757C28.542 34.7757 29.2977 34.8159 30.3365 34.0738C31.3753 33.3318 32.3037 31.2065 30.7506 31.2065C29.1976 31.2065 27.541 30.6755 27.541 30.6755L20.9148 29.1888Z" fill="black"/>
<path d="M26 20.4286C26 22.4286 24.46 24 22.5 24C20.54 24 19 22.4286 19 20.4286C19 18.4286 22.5 14 22.5 14C22.5 14 26 18.5714 26 20.4286Z" fill="black"/>
<path d="M41 16.1322C41 18.8365 38.7778 21 36 21C33.2222 21 31 18.8365 31 16.1322C31 13.4279 36 6 36 6C36 6 41 13.4279 41 16.1322Z" fill="black"/>
</svg>

<svg
  xmlns="http://www.w3.org/2000/svg"
  width="24"
  height="24"
  viewBox="0 0 24 24"
  fill="none"
  stroke="currentColor"
  stroke-width="2"
  stroke-linecap="round"
  stroke-linejoin="round"
>
  <path d="M6 30a1 1 0 0 1 1-1h3a1 1 0 0 1 1 1v10.996a1 1 0 0 1-1 1H7a1 1 0 0 1-1-1z" />
  <path d="M20.915 29.189s-2.278-.425-3.21 0c-.694.316-3.38 1.28-4.705 1.752v8.86c.767-.044 2.293-.125 2.945-.099 3.756.151 5.673 1.734 9.422 2.018 2.097.159 3.934.53 5.384 0 1.45-.531 9.732-4.566 10.767-5.628s.518-3.93-2.692-3.399-7.454 3.08-9.214 2.974-6.42-.956-6.42-.956l5.35.065s.756.04 1.794-.702c1.04-.742 1.968-2.867.415-2.867s-3.21-.532-3.21-.532z" />
  <path d="M26 20.429c0 2-1.54 3.571-3.5 3.571S19 22.429 19 20.429 22.5 14 22.5 14s3.5 4.571 3.5 6.429" />
  <path d="M41 16.132C41 18.836 38.778 21 36 21s-5-2.163-5-4.868C31 13.428 36 6 36 6s5 7.428 5 10.132" />
</svg>
